X:544
T:Reel 544
M:4/4
K:Dmaj
L:1/8
AG|F>D (3DDD DEDB,|A,B,DF GFED|G>E (3EEE BFED|EFED B,2AG|F>D (3DDD A,DB,A,|A,DDF G2EG|FADF GEFE|DFED C2|FG|Addc d2cd|edef edBc|ABde f2ed| (3Bcd AF EGFE|Addc dfed|BcBc B2AG|F2FD EDB,D|EDB,C D2|
